X: 1
T: Shottis efter Myr Hans
O: efter Bengt Jonsson
Z: John Chambers <jc@trillian.mit.edu>
R: shottish
M: 4/4
L: 1/8
K: Dm
(3A=B^c \
|: "Dm"d2 A2 "Gm"B2 G2 | "Dm"A>G FG A4 | "Gm"G>F EG "Dm"F>E DF |1,3 "A7"E2 A2 A4 :|2,4 "A7"E2 ^c2 "D"d4 :|
|: "Dm"~f2 ef a2 f2 | "A7"e>^c Ac e4 | "Dm"f2 df "A7"e2 ^ce | "Gm"d>e fd "A7"A4 |
|  "Dm"~f2 ef a2 f2 | "A7"e>^c Ac e4 | [K:D] "D"f2 df "A7"e2 ce | "D"d2 d2 d4 :|
